X: 1
T: Nightingale, The
T: Sean Ryan's
C: Sean Ryan
D: In Concert, Kevin Burke (with Martin Hayes on this track)
M: 6/8
L: 1/8
K: A Dorian
G | EAA A2 B| cAd cAG | ~E3 ~G3 | ~E3 GED |
| EAA A2 B | cAB cde | gfg e/f/ge | dBG A2 G |
| EAA A2 B | cAB cAG | EDE ~G3 | G,B,D GFG |
| EAA A2 B | cAB cde | gfg e/f/ge | dBG A2 a ||
| aea aef | gdg gda | aea aef | gfe deg |
| aea aef | gdg gdg | {a}gfg e/f/ge | dBG A2 ^g |
| aea aef |gdg gda | aea aef | gfe def |
| g2 e fed | edB GBd | {a}gfg e/f/ge | dBG A2 G ||
